svgs/russian_railways.svg

<svg width="192" height="192" viewBox="0 0 192 192" fill="none" xmlns="http://www.w3.org/2000/svg">
<path d="M64.2993 110.299L73.2833 99.0681C75.078 96.8244 75.0302 93.6232 73.1692 91.4341L69.6065 87.2431C68.4665 85.9021 66.7952 85.1293 65.0351 85.1293H35.0952M22 85.1293H35.0952M35.0952 85.1293V127M111.116 85.1293L90.9796 110.299M137 66H164C167.314 66 170 68.6863 170 72V104.299C170 107.613 167.314 110.299 164 110.299H138.047C136.287 110.299 134.615 109.526 133.475 108.185L129.919 104.001C128.058 101.812 128.01 98.6111 129.805 96.3674L138.796 85.1293" stroke="black" stroke-width="12" stroke-linecap="round" stroke-linejoin="round"/>
</svg>

<svg xmlns="http://www.w3.org/2000/svg" width="192" height="192" fill="none"><path stroke="#000" stroke-linecap="round" stroke-linejoin="round" stroke-width="12" d="m64.3 110.299 8.983-11.23a6 6 0 0 0-.114-7.635l-3.562-4.19a6 6 0 0 0-4.572-2.115h-29.94M22 85.13h13.095m0 0V127m76.021-41.87L90.98 110.298M137 66h27a6 6 0 0 1 6 6v32.299a6 6 0 0 1-6 6h-25.953a6 6 0 0 1-4.572-2.114l-3.556-4.184a6 6 0 0 1-.114-7.634l8.991-11.238"/></svg>
